public/images/logo/angular.svg

<svg width="18" height="18" viewBox="0 0 18 18" fill="none" xmlns="http://www.w3.org/2000/svg">
<path d="M9.00087 0.792969L0.957031 3.66145L2.18391 14.2973L9.00087 18.073L15.8178 14.2973L17.0447 3.66145L9.00087 0.792969Z" fill="currentColor"/>
<path d="M9 0.792969V2.71105V2.70241V11.4547V18.073L15.817 14.2973L17.0438 3.66145L9 0.792969Z" fill="currentColor"/>
<path d="M9.00016 2.70312L3.97168 13.9783H5.84656L6.85744 11.4554H11.1256L12.1365 13.9783H14.0114L9.00016 2.70312ZM10.469 9.90024H7.53136L9.00016 6.36648L10.469 9.90024Z" fill="white"/>
</svg>

<svg width="18" height="18" fill="none" xmlns="http://www.w3.org/2000/svg"><path d="M9 .793L.958 3.661l1.227 10.636L9 18.073l6.817-3.776 1.227-10.636L9 .793z" fill="currentColor"/><path d="M9 .793v1.918-.009 15.371l6.817-3.776 1.227-10.636L9 .793z" fill="currentColor"/><path d="M9 2.703L3.972 13.978h1.875l1.01-2.523h4.269l1.01 2.523h1.875L9.001 2.703zM10.47 9.9H7.531l1.47-3.534L10.468 9.9z" fill="#fff"/></svg>
